X: 03029
T: The FIFER'S DELIGHT
C: Bob McQuillen Oct 76
B: Bob's Note Book 03 #29
%R: jig
%D:1976
Z: 2020 John Chambers <jc:trillian.mit.edu>
M: 6/8
L: 1/8
K: D
A \
| F2A d2f | gfe dAF | DFA dfa | afd e2A |\
| F2A d2f | gfe dFG | Adf afd | edc d2 :|
|: A \
| ABA agf | edc dFG | ABA afd | def e2A |\
| ABA agf | edc dFG | Adf afd | efe d2 :|
%%begintext align
%% For Ralph & Walt Sweet and
%% Pat & Cammy, whose group,
%% The Fifer's Delight, makes such
%% great music!
%%endtext

%%sep 1 1 500

%%sep 1 1 500

